app/assets/icons/eye-slash.svg

<svg height="12" viewBox="0 0 16 12" width="16" xmlns="http://www.w3.org/2000/svg">
  <path
    d="m6.04249 1.61686c-.02952-.03235-.05003-.07189-.05948-.11466-.00944-.04276-.00748-.08726.00569-.12903.01316-.04178.03707-.07936.06933-.10898.03225-.02963.07173-.05026.11446-.05983.59947-.13707 1.21257-.205631 1.8275-.204379 2.18001 0 4.16061.828749 5.72871 2.396879 1.1769 1.17687 1.7063 2.35125 1.7282 2.40062.0284.06395.0431.13315.0431.20313s-.0147.13918-.0431.20312c-.0219.04938-.5513 1.22313-1.7282 2.4-.1783.1775-.3614.34563-.5493.50438-.0495.04197-.1133.06309-.178.0589-.0647-.0042-.1253-.03339-.1689-.0814zm7.32751 9.54684c.0451.0485.0801.1054.103.1674.023.0621.0334.1281.0306.1942s-.0186.131-.0467.1909c-.028.06-.0676.1137-.1166.1582s-.1063.0789-.1686.1011-.1285.0317-.1945.0282c-.0661-.0036-.1308-.0202-.1904-.0489-.0596-.0288-.1129-.0691-.1568-.1186l-1.38-1.5156c-1.0234.4527-2.13093.6842-3.25001.6794-2.18 0-4.16062-.8288-5.72875-2.39627-1.17687-1.17687-1.708746-2.35062-1.728121-2.4-.028429-.06394-.043119-.13314-.043119-.20312s.01469-.13918.043119-.20313c.019375-.0475.551251-1.22375 1.728121-2.40062.47018-.47235.99467-.88733 1.5625-1.23625l-1.20375-1.324379c-.04508-.048429-.0801-.105324-.10303-.167388-.02294-.062064-.03332-.128063-.03056-.194171.00276-.066107.01862-.13101.04665-.190944.02803-.059935.06767-.113711.11664-.15821.04896-.0444996.10628-.0788379.16861-.1010248.06233-.02218694.12845-.03178117.19452-.02822675.06607.00355443.13078.02018695.19037.04893335.0596.0287465.11289.0690352.1568.1185312zm-4.09313-3.01559-3.29313-3.625c-.33933.46493-.50783 1.03272-.47706 1.60749.03078.57478.25894 1.12132.64598 1.54737.38704.42604.90924.70548 1.47843.79113.56919.08566 1.1505-.02772 1.64578-.32099z"
    fill="currentColor" />
</svg>

<svg width="16" height="12" viewBox="0 0 16 12" fill="none" xmlns="http://www.w3.org/2000/svg">
  <path
    d="M6.04249 1.61686C6.01297 1.58451 5.99246 1.54497 5.98301 1.5022C5.97357 1.45944 5.97553 1.41494 5.9887 1.37317C6.00186 1.33139 6.02577 1.29381 6.05803 1.26419C6.09028 1.23456 6.12976 1.21393 6.17249 1.20436C6.77196 1.06729 7.38506 0.998729 7.99999 0.999981C10.18 0.999981 12.1606 1.82873 13.7287 3.39686C14.9056 4.57373 15.435 5.74811 15.4569 5.79748C15.4853 5.86143 15.5 5.93063 15.5 6.00061C15.5 6.07059 15.4853 6.13979 15.4569 6.20373C15.435 6.25311 14.9056 7.42686 13.7287 8.60373C13.5504 8.78123 13.3673 8.94936 13.1794 9.10811C13.1299 9.15008 13.0661 9.1712 13.0014 9.16701C12.9367 9.16281 12.8761 9.13362 12.8325 9.08561L6.04249 1.61686ZM13.37 11.1637C13.4151 11.2122 13.4501 11.2691 13.473 11.3311C13.496 11.3932 13.5064 11.4592 13.5036 11.5253C13.5008 11.5914 13.485 11.6563 13.4569 11.7162C13.4289 11.7762 13.3893 11.8299 13.3403 11.8744C13.2913 11.9189 13.234 11.9533 13.1717 11.9755C13.1094 11.9977 13.0432 12.0072 12.9772 12.0037C12.9111 12.0001 12.8464 11.9835 12.7868 11.9548C12.7272 11.926 12.6739 11.8857 12.63 11.8362L11.25 10.3206C10.2266 10.7733 9.11907 11.0048 7.99999 11C5.81999 11 3.83937 10.1712 2.27124 8.60373C1.09437 7.42686 0.562494 6.25311 0.543119 6.20373C0.51469 6.13979 0.5 6.07059 0.5 6.00061C0.5 5.93063 0.51469 5.86143 0.543119 5.79748C0.562494 5.74998 1.09437 4.57373 2.27124 3.39686C2.74142 2.92451 3.26591 2.50953 3.83374 2.16061L2.62999 0.836231C2.58491 0.787802 2.54989 0.730907 2.52696 0.668843C2.50402 0.606779 2.49364 0.54078 2.4964 0.474672C2.49916 0.408565 2.51502 0.343662 2.54305 0.283728C2.57108 0.223793 2.61072 0.170017 2.65969 0.125518C2.70865 0.0810184 2.76597 0.0466801 2.8283 0.0244932C2.89063 0.00230626 2.95675 -0.00728797 3.02282 -0.00373355C3.08889 -0.000179118 3.1536 0.0164534 3.21319 0.0451998C3.27279 0.0739463 3.32608 0.114235 3.36999 0.163731L13.37 11.1637ZM9.27687 8.14811L5.98374 4.52311C5.64441 4.98804 5.47591 5.55583 5.50668 6.1306C5.53746 6.70538 5.76562 7.25192 6.15266 7.67797C6.5397 8.10401 7.0619 8.38345 7.63109 8.4691C8.20028 8.55476 8.78159 8.44138 9.27687 8.14811Z"
    fill="#252623" />
</svg>
